X: 37263
T: Skelton's
R: mazurka
M: 3/4
K: Gmajor
|:(3GFE|D>G G>F G>B|D>B B>A B>d|c>B A>G F>G|A>G F>E D2|
D>G G>F G>B|D>B B>A (3Bcd|c>B A>G F>A|G2 G2:|
|:B>c|d2 d>e d>c|B2 G2 A>B|c2 c>d c>B|A2 A2 (3ABc|
d2 d>e d>c|B2 G2 A>B|c>B A>G F>A|G2 G2:|

